modules/feathericon/icons/folder.svg

<?xml version="1.0" encoding="UTF-8"?>
<svg width="24px" height="24px" viewBox="0 0 24 24" version="1.1" xmlns="http://www.w3.org/2000/svg" xmlns:xlink="http://www.w3.org/1999/xlink">
    <!-- Generator: sketchtool 52.2 (67145) - http://www.bohemiancoding.com/sketch -->
    <title>folder</title>
    <desc>Created with sketchtool.</desc>
    <g id="web-app" stroke="none" stroke-width="1" fill="none" fill-rule="evenodd">
        <g id="folder" fill="#000000" fill-rule="nonzero">
            <path d="M11,5 L19,5 C20.1045695,5 21,5.8954305 21,7 L21,19 C21,20.1045695 20.1045695,21 19,21 L5,21 C3.8954305,21 3,20.1045695 3,19 C3,9.66666667 3,5 3,5 C3,3.9000001 3.9000001,3 5,3 C5,3 6.33333333,3 9,3 L11,5 Z M5,7 L5,19 L19,19 L19,7 L5,7 Z" id="Shape"></path>
        </g>
    </g>
</svg>

<svg width="24" height="24" viewBox="0 0 24 24" xmlns="http://www.w3.org/2000/svg"><path d="M11 5h8a2 2 0 0 1 2 2v12a2 2 0 0 1-2 2H5a2 2 0 0 1-2-2V5c0-1.1.9-2 2-2h4l2 2zM5 7v12h14V7H5z" fill="#000" fill-rule="nonzero"/></svg>
